branches/nugui/src/gui/icons/build_fragment.svg

<?xml version="1.0" encoding="UTF-8" standalone="no"?>
<!-- Created with Inkscape (http://www.inkscape.org/) -->

<svg
   xmlns:dc="http://purl.org/dc/elements/1.1/"
   xmlns:cc="http://creativecommons.org/ns#"
   xmlns:rdf="http://www.w3.org/1999/02/22-rdf-syntax-ns#"
   xmlns:svg="http://www.w3.org/2000/svg"
   xmlns="http://www.w3.org/2000/svg"
   xmlns:xlink="http://www.w3.org/1999/xlink"
   xmlns:inkscape="http://www.inkscape.org/namespaces/inkscape"
   version="1.0"
   width="100"
   height="100"
   id="svg2">
  <metadata
     id="metadata2566">
    <rdf:RDF>
      <cc:Work
         rdf:about="">
        <dc:format>image/svg+xml</dc:format>
        <dc:type
           rdf:resource="http://purl.org/dc/dcmitype/StillImage" />
      </cc:Work>
    </rdf:RDF>
  </metadata>
  <defs
     id="defs4">
    <linearGradient
       id="linearGradient3384">
      <stop
         id="stop3386"
         style="stop-color:#0000ff;stop-opacity:1"
         offset="0" />
      <stop
         id="stop3388"
         style="stop-color:#000000;stop-opacity:1"
         offset="1" />
    </linearGradient>
    <linearGradient
       id="linearGradient3252">
      <stop
         id="stop3254"
         style="stop-color:#ffffff;stop-opacity:1"
         offset="0" />
      <stop
         id="stop3256"
         style="stop-color:#7f7fff;stop-opacity:0"
         offset="1" />
    </linearGradient>
    <linearGradient
       x1="25.398125"
       y1="63.345894"
       x2="90.625114"
       y2="63.345894"
       id="linearGradient2465"
       xlink:href="#linearGradient3384"
       gradientUnits="userSpaceOnUse"
       gradientTransform="matrix(0.2688926,0.2688926,-0.2688926,0.2688926,38.227733,-8.4494346)" />
    <radialGradient
       cx="58.01162"
       cy="63.345894"
       r="33.113495"
       fx="58.01162"
       fy="63.345894"
       id="radialGradient2467"
       xlink:href="#linearGradient3252"
       gradientUnits="userSpaceOnUse"
       gradientTransform="matrix(0.2134373,0,0,0.2134373,19.805211,5.9610473)" />
  </defs>
  <path
     d="M 31.860426,54.057325 C 48.894833,45.175292 48.73191,45.227696 48.73191,45.227696"
     inkscape:connector-curvature="0"
     id="path3458"
     style="fill:none;stroke:#000000;stroke-width:3.5;stroke-linecap:butt;stroke-linejoin:miter;stroke-miterlimit:4;stroke-opacity:1;stroke-dasharray:none" />
  <g
     transform="matrix(1.2546759,0,0,1.2546759,-4.1350383,-28.458072)"
     id="g3443">
    <path
       d="m 33.38001,72.036933 c 0.0012,6.85028 -5.55171,12.40416 -12.40199,12.40416 -6.85027,0 -12.40318,-5.55388 -12.40198,-12.40416 -0.0012,-6.85028 5.55171,-12.40416 12.40198,-12.40416 6.85028,0 12.40319,5.55388 12.40199,12.40416 l 0,0 z"
       inkscape:connector-curvature="0"
       id="path6944"
       style="fill:#282828;fill-opacity:1;fill-rule:evenodd;stroke:none" />
    <g
       transform="translate(-19.077875,45.505361)"
       id="g6912">
      <path
         d="m 49.066773,24.22879 c 0.0012,6.850275 -5.551709,12.404157 -12.401985,12.404157 -6.850275,0 -12.403184,-5.553882 -12.401985,-12.404157 -0.0012,-6.850276 5.55171,-12.404157 12.401985,-12.404157 6.850276,0 12.403184,5.553881 12.401985,12.404157 l 0,0 z"
         inkscape:connector-curvature="0"
         id="path6914"
         style="fill:#0000ff;fill-opacity:1;fill-rule:evenodd;stroke:#000000;stroke-width:0.38027155px;stroke-linecap:butt;stroke-linejoin:miter;stroke-opacity:1" />
      <path
         d="m 45.562914,32.95223 c -4.843029,4.844723 -12.696715,4.845411 -17.54059,0.0015 -4.843878,-4.843877 -4.843189,-12.697563 0.0015,-17.54059 4.843028,-4.844725 12.696714,-4.845413 17.540591,-0.0015 4.843875,4.843876 4.843187,12.697563 -0.0015,17.540591 l 0,0 z"
         inkscape:connector-curvature="0"
         id="path6916"
         style="opacity:0.71739131;fill:url(#linearGradient2465);fill-opacity:1;fill-rule:evenodd;stroke:none" />
      <path
         d="m 39.147988,19.481422 c 6.73e-4,3.844893 -3.11604,6.962154 -6.960935,6.962154 -3.844894,0 -6.961608,-3.117261 -6.960935,-6.962154 -6.73e-4,-3.844895 3.116041,-6.962154 6.960935,-6.962154 3.844895,0 6.961608,3.117259 6.960935,6.962154 l 0,0 z"
         inkscape:connector-curvature="0"
         id="path6918"
         style="fill:url(#radialGradient2467);fill-opacity:1;fill-rule:evenodd;stroke:none" />
    </g>
  </g>
  <g
     transform="matrix(1.2200017,0.6944926,-0.6944926,1.2200017,-53.057574,-63.122908)"
     id="g3437"
     style="stroke:#282828;stroke-width:2.00024962;stroke-miterlimit:4;stroke-opacity:1;stroke-dasharray:none">
    <path
       d="M 24.293239,26.831077 -9.2238601,31.896265 -24.398493,1.5848381 -0.25983245,-22.213842 29.833313,-6.6108075 z"
       transform="matrix(0.6874757,0,0,0.6874757,107.16222,10.199422)"
       id="path3433"
       style="fill:none;stroke:#282828;stroke-width:2.90955687;stroke-linecap:round;stroke-linejoin:round;stroke-miterlimit:4;stroke-opacity:1;stroke-dasharray:none;stroke-dashoffset:0" />
    <path
       d="m 120.22341,24.935469 -17.38789,2.627702 m 4.65033,-28.07106838 15.61162,8.09449198"
       inkscape:connector-curvature="0"
       id="path3435"
       style="fill:none;stroke:#282828;stroke-width:2.00024962;stroke-linecap:round;stroke-linejoin:round;stroke-miterlimit:4;stroke-opacity:1;stroke-dasharray:none;stroke-dashoffset:0" />
  </g>
  <path
     d="M 24.293239,26.831077 -9.2238601,31.896265 -24.398493,1.5848381 -0.25983245,-22.213842 29.833313,-6.6108075 z"
     transform="matrix(0.8387215,0.4774468,-0.4774468,0.8387215,70.256529,21.9107)"
     id="path3428"
     style="fill:none;stroke:#000000;stroke-width:2.90955687;stroke-linecap:round;stroke-linejoin:round;stroke-miterlimit:4;stroke-opacity:1;stroke-dasharray:none;stroke-dashoffset:0" />
  <path
     d="M 75.957125,48.959602 52.918951,40.089642 M 78.087512,9.0725122 91.51215,29.789962"
     inkscape:connector-curvature="0"
     id="path3430"
     style="fill:none;stroke:#000000;stroke-width:2.80764961;stroke-linecap:round;stroke-linejoin:round;stroke-miterlimit:4;stroke-opacity:1;stroke-dashoffset:0" />
  <path
     d="m 50.430822,46.079044 6.93554,43.258844 10.31584,-5.95585 6.92788,11.99943 6.42827,-3.71136 -6.92788,-11.99944 10.31584,-5.95585 -33.99549,-27.635774 z"
     inkscape:connector-curvature="0"
     id="path6940"
     style="fill:#282828;fill-opacity:1;fill-rule:evenodd;stroke:none" />
  <path
     d="m 47.039722,43.776261 6.93554,43.258844 10.31584,-5.955854 6.92787,11.999435 6.42827,-3.711363 -6.92788,-11.999434 10.31584,-5.955853 -33.99548,-27.635775 z"
     inkscape:connector-curvature="0"
     id="path6783"
     style="fill:#ffffff;fill-opacity:1;fill-rule:evenodd;stroke:#000000;stroke-width:1.69662297;stroke-linecap:round;stroke-linejoin:round;stroke-miterlimit:4;stroke-opacity:1;stroke-dashoffset:0" />
</svg>

<?xml version="1.0" encoding="UTF-8" standalone="no"?>
<!-- Created with Inkscape (http://www.inkscape.org/) -->
<svg
   xmlns:dc="http://purl.org/dc/elements/1.1/"
   xmlns:cc="http://creativecommons.org/ns#"
   xmlns:rdf="http://www.w3.org/1999/02/22-rdf-syntax-ns#"
   xmlns:svg="http://www.w3.org/2000/svg"
   xmlns="http://www.w3.org/2000/svg"
   xmlns:xlink="http://www.w3.org/1999/xlink"
   xmlns:sodipodi="http://sodipodi.sourceforge.net/DTD/sodipodi-0.dtd"
   xmlns:inkscape="http://www.inkscape.org/namespaces/inkscape"
   version="1.0"
   width="100"
   height="100"
   id="svg2"
   sodipodi:version="0.32"
   inkscape:version="0.46"
   sodipodi:docname="build_fragment.svg"
   sodipodi:docbase="/home/tris/src/aten/src/gui-qt/icons"
   inkscape:output_extension="org.inkscape.output.svg.inkscape">
  <metadata
     id="metadata2566">
    <rdf:RDF>
      <cc:Work
         rdf:about="">
        <dc:format>image/svg+xml</dc:format>
        <dc:type
           rdf:resource="http://purl.org/dc/dcmitype/StillImage" />
      </cc:Work>
    </rdf:RDF>
  </metadata>
  <sodipodi:namedview
     inkscape:window-height="725"
     inkscape:window-width="1024"
     inkscape:pageshadow="2"
     inkscape:pageopacity="0.0"
     guidetolerance="10.0"
     gridtolerance="10.0"
     objecttolerance="10.0"
     borderopacity="1.0"
     bordercolor="#666666"
     pagecolor="#ffffff"
     id="base"
     inkscape:zoom="0.61125"
     inkscape:cx="-183.47591"
     inkscape:cy="-30.700181"
     inkscape:window-x="5"
     inkscape:window-y="52"
     inkscape:current-layer="svg2"
     showgrid="false" />
  <defs
     id="defs4">
    <linearGradient
       id="linearGradient3384">
      <stop
         style="stop-color:#0000ff;stop-opacity:1;"
         offset="0"
         id="stop3386" />
      <stop
         style="stop-color:#000000;stop-opacity:1"
         offset="1"
         id="stop3388" />
    </linearGradient>
    <linearGradient
       id="linearGradient3252">
      <stop
         style="stop-color:#ffffff;stop-opacity:1"
         offset="0"
         id="stop3254" />
      <stop
         style="stop-color:#7f7fff;stop-opacity:0;"
         offset="1"
         id="stop3256" />
    </linearGradient>
    <linearGradient
       inkscape:collect="always"
       xlink:href="#linearGradient3384"
       id="linearGradient2465"
       gradientUnits="userSpaceOnUse"
       gradientTransform="matrix(0.2688926,0.2688926,-0.2688926,0.2688926,38.227733,-8.4494346)"
       x1="25.398125"
       y1="63.345894"
       x2="90.625114"
       y2="63.345894" />
    <radialGradient
       inkscape:collect="always"
       xlink:href="#linearGradient3252"
       id="radialGradient2467"
       gradientUnits="userSpaceOnUse"
       gradientTransform="matrix(0.2134373,0,0,0.2134373,19.805211,5.9610473)"
       cx="58.01162"
       cy="63.345894"
       fx="58.01162"
       fy="63.345894"
       r="33.113495" />
  </defs>
  <path
     style="fill:none;fill-rule:evenodd;stroke:#000000;stroke-width:3.5;stroke-linecap:butt;stroke-linejoin:miter;stroke-miterlimit:4;stroke-dasharray:none;stroke-opacity:1"
     d="M 31.860426,54.057325 C 48.894833,45.175292 48.73191,45.227696 48.73191,45.227696"
     id="path3458" />
  <g
     id="g3443"
     transform="matrix(1.2546759,0,0,1.2546759,-4.1350383,-28.458072)">
    <path
       d="M 33.38001,72.036933 C 33.38121,78.887213 27.8283,84.441093 20.97802,84.441093 C 14.12775,84.441093 8.57484,78.887213 8.57604,72.036933 C 8.57484,65.186653 14.12775,59.632773 20.97802,59.632773 C 27.8283,59.632773 33.38121,65.186653 33.38001,72.036933 L 33.38001,72.036933 z"
       style="fill:#282828;fill-opacity:1;fill-rule:evenodd;stroke:none;stroke-width:0.38027155px;stroke-linecap:butt;stroke-linejoin:miter;stroke-opacity:1"
       id="path6944" />
    <g
       transform="translate(-19.077875,45.505361)"
       id="g6912">
      <path
         id="path6914"
         style="fill:#0000ff;fill-opacity:1;fill-rule:evenodd;stroke:#000000;stroke-width:0.38027155px;stroke-linecap:butt;stroke-linejoin:miter;stroke-opacity:1"
         d="M 49.066773,24.22879 C 49.067972,31.079065 43.515064,36.632947 36.664788,36.632947 C 29.814513,36.632947 24.261604,31.079065 24.262803,24.22879 C 24.261604,17.378514 29.814513,11.824633 36.664788,11.824633 C 43.515064,11.824633 49.067972,17.378514 49.066773,24.22879 L 49.066773,24.22879 z" />
      <path
         id="path6916"
         style="opacity:0.71739131;fill:url(#linearGradient2465);fill-opacity:1;fill-rule:evenodd;stroke:none;stroke-width:1px;stroke-linecap:butt;stroke-linejoin:miter;stroke-opacity:1"
         d="M 45.562914,32.95223 C 40.719885,37.796953 32.866199,37.797641 28.022324,32.953766 C 23.178446,28.109889 23.179135,20.256203 28.023859,15.413176 C 32.866887,10.568451 40.720573,10.567763 45.56445,15.411639 C 50.408325,20.255515 50.407637,28.109202 45.562914,32.95223 L 45.562914,32.95223 z" />
      <path
         id="path6918"
         style="fill:url(#radialGradient2467);fill-opacity:1;fill-rule:evenodd;stroke:none;stroke-width:1px;stroke-linecap:butt;stroke-linejoin:miter;stroke-opacity:1"
         d="M 39.147988,19.481422 C 39.148661,23.326315 36.031948,26.443576 32.187053,26.443576 C 28.342159,26.443576 25.225445,23.326315 25.226118,19.481422 C 25.225445,15.636527 28.342159,12.519268 32.187053,12.519268 C 36.031948,12.519268 39.148661,15.636527 39.147988,19.481422 L 39.147988,19.481422 z" />
    </g>
  </g>
  <g
     id="g3437"
     style="stroke:#282828;stroke-width:2.00024962;stroke-miterlimit:4;stroke-dasharray:none;stroke-opacity:1"
     transform="matrix(1.2200017,0.6944926,-0.6944926,1.2200017,-53.057574,-63.122908)">
    <path
       transform="matrix(0.6874757,0,0,0.6874757,107.16222,10.199422)"
       d="M 24.293239,26.831077 L -9.2238601,31.896265 L -24.398493,1.5848381 L -0.25983245,-22.213842 L 29.833313,-6.6108075 L 24.293239,26.831077 z"
       inkscape:randomized="0"
       inkscape:rounded="0"
       inkscape:flatsided="true"
       sodipodi:arg2="1.4208088"
       sodipodi:arg1="0.79249024"
       sodipodi:r2="0.28835082"
       sodipodi:r1="28.835081"
       sodipodi:cy="6.2975063"
       sodipodi:cx="4.0488734"
       sodipodi:sides="5"
       id="path3433"
       style="opacity:1;fill:none;fill-opacity:1;fill-rule:evenodd;stroke:#282828;stroke-width:2.90955687;stroke-linecap:round;stroke-linejoin:round;stroke-miterlimit:4;stroke-dasharray:none;stroke-dashoffset:0;stroke-opacity:1"
       sodipodi:type="star" />
    <path
       sodipodi:nodetypes="cccc"
       id="path3435"
       d="M 120.22341,24.935469 L 102.83552,27.563171 M 107.48585,-0.50789738 L 123.09747,7.5865946"
       style="fill:none;fill-opacity:1;fill-rule:evenodd;stroke:#282828;stroke-width:2.00024962;stroke-linecap:round;stroke-linejoin:round;stroke-miterlimit:4;stroke-dasharray:none;stroke-dashoffset:0;stroke-opacity:1" />
  </g>
  <path
     sodipodi:type="star"
     style="opacity:1;fill:none;fill-opacity:1;fill-rule:evenodd;stroke:#000000;stroke-width:2.90955687;stroke-linecap:round;stroke-linejoin:round;stroke-miterlimit:4;stroke-dasharray:none;stroke-dashoffset:0;stroke-opacity:1"
     id="path3428"
     sodipodi:sides="5"
     sodipodi:cx="4.0488734"
     sodipodi:cy="6.2975063"
     sodipodi:r1="28.835081"
     sodipodi:r2="0.28835082"
     sodipodi:arg1="0.79249024"
     sodipodi:arg2="1.4208088"
     inkscape:flatsided="true"
     inkscape:rounded="0"
     inkscape:randomized="0"
     d="M 24.293239,26.831077 L -9.2238601,31.896265 L -24.398493,1.5848381 L -0.25983245,-22.213842 L 29.833313,-6.6108075 L 24.293239,26.831077 z"
     transform="matrix(0.8387215,0.4774468,-0.4774468,0.8387215,70.256529,21.9107)" />
  <path
     style="fill:none;fill-opacity:1;fill-rule:evenodd;stroke:#000000;stroke-width:2.80764961;stroke-linecap:round;stroke-linejoin:round;stroke-miterlimit:4;stroke-dashoffset:0;stroke-opacity:1"
     d="M 75.957125,48.959602 L 52.918951,40.089642 M 78.087512,9.0725122 L 91.51215,29.789962"
     id="path3430"
     sodipodi:nodetypes="cccc" />
  <path
     style="fill:#282828;fill-opacity:1;fill-rule:evenodd;stroke:none;stroke-width:1.69662297;stroke-linecap:round;stroke-linejoin:round;stroke-miterlimit:4;stroke-dashoffset:0;stroke-opacity:1"
     d="M 50.430822,46.079044 L 57.366362,89.337888 L 67.682202,83.382038 L 74.610082,95.381468 L 81.038352,91.670108 L 74.110472,79.670668 L 84.426312,73.714818 L 50.430822,46.079044 z"
     id="path6940" />
  <path
     style="fill:#ffffff;fill-opacity:1;fill-rule:evenodd;stroke:#000000;stroke-width:1.69662297;stroke-linecap:round;stroke-linejoin:round;stroke-miterlimit:4;stroke-dashoffset:0;stroke-opacity:1"
     d="M 47.039722,43.776261 L 53.975262,87.035105 L 64.291102,81.079251 L 71.218972,93.078686 L 77.647242,89.367323 L 70.719362,77.367889 L 81.035202,71.412036 L 47.039722,43.776261 z"
     id="path6783" />
</svg>
